X:67
T:Come Haste to the Wedding. TJD.67
T:Haste to the Wedding,aka. TJD.67
M:6/8
L:1/8
Q:1/4=120
S:T.J.Dixon MS2, Lincolnshire, early 19thC
R:jig
A:Lincolnshire, Holton le Moor
Z:vmp.R.Greig2010
K:D
A|AFG Aaf|ede fdB|AFA BdF|EEEE2A|!
AFG Aaf|ede fdB|AFA faf| d”^crotchet added”dd d2:|!
|:a|(af)a (af)a|bgb bgb|afa agf|e”^undotted in MS”eee3|!
a3f3|ede fdB|AFA faf|dddd2:|]

